Hatter-kde/actions/22/junction.svg

<?xml version="1.0" encoding="UTF-8"?>
<svg viewBox="0 0 22 22" xmlns="http://www.w3.org/2000/svg">
 <defs id="defs3051">
  <style id="current-color-scheme" type="text/css">.ColorScheme-Text {
        color:#363636;
      }</style>
 </defs>
 <path class="ColorScheme-Text" d="m4.5 3a1.5 1.5 0 0 0-1.5 1.5 1.5 1.5 0 0 0 1 1.4121v4.0879a2 2 0 0 0 0.67969 1.5 2 2 0 0 0-0.67969 1.5v3.0879a1.5 1.5 0 0 0-1 1.4121 1.5 1.5 0 0 0 1.5 1.5 1.5 1.5 0 0 0 1.5-1.5 1.5 1.5 0 0 0-1-1.4121v-3.0879a1 1 0 0 1 1-1h10a1 1 0 0 1 1 1v3.0879a1.5 1.5 0 0 0-1 1.4121 1.5 1.5 0 0 0 1.5 1.5 1.5 1.5 0 0 0 1.5-1.5 1.5 1.5 0 0 0-1-1.4121v-3.0879a2 2 0 0 0-0.67969-1.5 2 2 0 0 0 0.67969-1.5v-4.0879a1.5 1.5 0 0 0 1-1.4121 1.5 1.5 0 0 0-1.5-1.5 1.5 1.5 0 0 0-1.5 1.5 1.5 1.5 0 0 0 1 1.4121v4.0879a1 1 0 0 1-1 1h-10a1 1 0 0 1-1-1v-4.0879a1.5 1.5 0 0 0 1-1.4121 1.5 1.5 0 0 0-1.5-1.5zm0 1a0.5 0.5 0 0 1 0.5 0.5 0.5 0.5 0 0 1-0.5 0.5 0.5 0.5 0 0 1-0.5-0.5 0.5 0.5 0 0 1 0.5-0.5zm13 0a0.5 0.5 0 0 1 0.5 0.5 0.5 0.5 0 0 1-0.5 0.5 0.5 0.5 0 0 1-0.5-0.5 0.5 0.5 0 0 1 0.5-0.5zm-13 13a0.5 0.5 0 0 1 0.5 0.5 0.5 0.5 0 0 1-0.5 0.5 0.5 0.5 0 0 1-0.5-0.5 0.5 0.5 0 0 1 0.5-0.5zm13 0a0.5 0.5 0 0 1 0.5 0.5 0.5 0.5 0 0 1-0.5 0.5 0.5 0.5 0 0 1-0.5-0.5 0.5 0.5 0 0 1 0.5-0.5z" fill="currentColor"/>
</svg>

<svg xmlns="http://www.w3.org/2000/svg" viewBox="0 0 22 22">
  <defs id="defs3051">
    <style type="text/css" id="current-color-scheme">
      .ColorScheme-Text {
        color:#363636;
      }
      </style>
  </defs>
 <path 
     style="fill:currentColor;fill-opacity:1;stroke:none" 
     d="M 4.5 3 A 1.4999979 1.5 0 0 0 3 4.5 A 1.4999979 1.5 0 0 0 4 5.9121094 L 4 10 A 2 2 0 0 0 4.6796875 11.5 A 2 2 0 0 0 4 13 L 4 16.087891 A 1.4999979 1.5 0 0 0 3 17.5 A 1.4999979 1.5 0 0 0 4.5 19 A 1.4999979 1.5 0 0 0 6 17.5 A 1.4999979 1.5 0 0 0 5 16.087891 L 5 13 A 1 1 0 0 1 6 12 L 16 12 A 1 1 0 0 1 17 13 L 17 16.087891 A 1.4999979 1.5 0 0 0 16 17.5 A 1.4999979 1.5 0 0 0 17.5 19 A 1.4999979 1.5 0 0 0 19 17.5 A 1.4999979 1.5 0 0 0 18 16.087891 L 18 13 A 2 2 0 0 0 17.320312 11.5 A 2 2 0 0 0 18 10 L 18 5.9121094 A 1.4999979 1.5 0 0 0 19 4.5 A 1.4999979 1.5 0 0 0 17.5 3 A 1.4999979 1.5 0 0 0 16 4.5 A 1.4999979 1.5 0 0 0 17 5.9121094 L 17 10 A 1 1 0 0 1 16 11 L 6 11 A 1 1 0 0 1 5 10 L 5 5.9121094 A 1.4999979 1.5 0 0 0 6 4.5 A 1.4999979 1.5 0 0 0 4.5 3 z M 4.5 4 A 0.5 0.5 0 0 1 5 4.5 A 0.5 0.5 0 0 1 4.5 5 A 0.5 0.5 0 0 1 4 4.5 A 0.5 0.5 0 0 1 4.5 4 z M 17.5 4 A 0.5 0.5 0 0 1 18 4.5 A 0.5 0.5 0 0 1 17.5 5 A 0.5 0.5 0 0 1 17 4.5 A 0.5 0.5 0 0 1 17.5 4 z M 4.5 17 A 0.5 0.5 0 0 1 5 17.5 A 0.5 0.5 0 0 1 4.5 18 A 0.5 0.5 0 0 1 4 17.5 A 0.5 0.5 0 0 1 4.5 17 z M 17.5 17 A 0.5 0.5 0 0 1 18 17.5 A 0.5 0.5 0 0 1 17.5 18 A 0.5 0.5 0 0 1 17 17.5 A 0.5 0.5 0 0 1 17.5 17 z "
     class="ColorScheme-Text"
     />
</svg>
